src/assets/images/YR_logo.svg

<?xml version="1.0" encoding="UTF-8" standalone="no"?>
<svg
   xmlns:dc="http://purl.org/dc/elements/1.1/"
   xmlns:cc="http://creativecommons.org/ns#"
   xmlns:rdf="http://www.w3.org/1999/02/22-rdf-syntax-ns#"
   xmlns:svg="http://www.w3.org/2000/svg"
   xmlns="http://www.w3.org/2000/svg"
   viewBox="0 0 515.01251 245.6125"
   height="245.6125"
   width="515.01251"
   xml:space="preserve"
   version="1.1"
   id="svg2"><metadata
     id="metadata8"><rdf:RDF><cc:Work
         rdf:about=""><dc:format>image/svg+xml</dc:format><dc:type
           rdf:resource="http://purl.org/dc/dcmitype/StillImage" /><dc:title></dc:title></cc:Work></rdf:RDF></metadata><defs
     id="defs6" /><g
     transform="matrix(1.25,0,0,-1.25,0,245.6125)"
     id="g10"><g
       transform="scale(0.1,0.1)"
       id="g12"><path
         id="path14"
         style="fill:#55c5be;fill-opacity:1;fill-rule:nonzero;stroke:none"
         d="m 2984.13,613.199 -71.32,0 57.79,260.692 70.29,0 c 59.26,0 103.46,-45.731 103.46,-108 0,-82.379 -61.79,-152.692 -160.22,-152.692 z m 64.75,297.84 -111.97,0 -73.83,-334.969 114.03,0 c 145.63,0 210.93,100.91 210.93,191.871 0,83.84 -64.3,143.098 -139.16,143.098 z m 198.39,-334.969 41.67,0 73.84,334.969 -41.7,0 -73.81,-334.969 z m -665.41,111.489 111.01,180.82 31.12,-180.82 -142.13,0 z m 92.43,223.48 -208.95,-334.969 49.72,0 46.18,74.821 166.8,0 13.55,-74.821 45.2,0 -60.77,334.969 -51.73,0 z m -345.52,-165.219 -88.39,0 28.59,128.071 83.39,0 c 29.16,0 57.28,-22.11 57.28,-53.719 0,-40.184 -29.11,-74.352 -80.87,-74.352 z m 29.62,165.219 -123.05,0 -73.84,-334.969 41.67,0 29.16,133.09 69.84,0 56.22,-133.09 46.21,0 -60.28,135.102 c 65.32,4.519 109,50.707 109,112.469 0,55.281 -46.7,87.398 -94.93,87.398 z m 1660.28,476.751 -26.12,-118.54 -120.03,0 26.12,118.54 -101.46,0 -73.85,-335.03 101.45,0 28.16,128.08 120,0 -28.08,-128.08 101.44,0 73.85,335.03 -101.48,0 z m -795.98,-194.9 c -7.03,-32.13 -28.66,-57.76 -69.82,-57.76 -38.19,0 -55.76,24.09 -56.28,45.71 0,5 0.52,9.56 1.03,12.05 l 43.17,194.9 -102.97,0 -43.69,-197.39 c -1,-5.06 -2.47,-17.12 -2.47,-21.15 0,-71.79 51.7,-122.53 161.21,-122.53 107.96,0 154.72,63.29 172.28,144.18 l 43.69,196.89 -102.98,0 -43.17,-194.9 z m 352.52,-585.718 c -62.27,0 -113,39.68 -113,111.539 0,92.879 64.8,160.699 141.66,160.699 62.24,0 113.01,-39.68 113.01,-111.469 0,-92.921 -65.32,-160.769 -141.67,-160.769 z m 31.16,309.418 c -104.49,0 -188.36,-87.371 -188.36,-199.899 0,-92.953 68.81,-146.66 154.68,-146.66 105,0 188.38,87.879 188.38,200.41 0,92.911 -68.8,146.149 -154.7,146.149 z m -1763.55,37.769 c -63.27,-49.847 -149.99,-109.058 -230.57,-138.621 -42.86,-15.636 -105.62,-31.84 -154.36,-11.879 -96.42,39.563 -67.57,140.52 -48.07,210.221 16.8,60.6 94.36,210.06 29.31,242.71 -87.06,43.46 -169.27,-148.31 -187.31,-180.85 C 1208.38,998.004 1165.38,920.34 1123.8,841.672 1069.42,738.57 1013.97,631.5 955.875,529.738 916.531,460.852 883.051,385.07 825.496,324.422 758.16,253.699 670.703,305.711 670.816,384.789 c 0.539,171.563 89.418,343.289 151.188,504 37.488,97.574 63.293,153.541 100.269,248.561 4.211,10.79 39.567,82.78 23.993,91.76 -12.649,7.28 -46.813,-49.18 -63.578,-73.17 C 821.742,1068.85 764.504,987.391 690.742,904.621 653.395,862.691 571.594,784.238 495.273,810.398 c -88.082,30.301 -65.339,123.411 -45.531,182.219 29.844,88.453 107.926,248.883 112.27,258.783 4.519,9.93 -4.524,19.04 -22.114,9.39 -17.652,-9.69 -72.789,-46.43 -108.062,-70.81 C 304.609,1093.34 84.7852,923.66 7.70703,861.59 67.25,376.031 480.781,0 982.449,0 c 542.711,0 982.421,439.762 982.421,982.371 0,23.759 -1.08,47.159 -2.79,70.389 -39.16,-33.61 -78.95,-66.58 -119.26,-98.401 z m 422.17,98.401 101.45,0 29.1,133.08 169.28,201.95 -119.06,0 -86.38,-113.04 -37.17,113.04 -108.95,0 80.83,-201.95 -29.1,-133.08 z m 486.12,251.11 c 45.23,0 75.33,-30.12 75.33,-71.3 0,-51.23 -37.18,-96.44 -90.4,-96.44 -45.18,0 -75.32,30.13 -75.32,71.33 0,51.2 37.16,96.41 90.39,96.41 z m -20.63,-257.15 c 116.59,0 200.95,86.89 200.95,193.89 0,90.4 -75.35,152.69 -174.29,152.69 -116.53,0 -201.41,-85.91 -201.41,-192.86 0,-90.93 75.35,-153.72 174.75,-153.72 z M 415.176,1286.56 c 52.613,34.67 112.558,80.11 179.691,94.68 92.832,20.29 97.778,-65.66 82.063,-114.72 -28.883,-89.38 -79.364,-173.24 -113.578,-261.2 -12.028,-31.066 -47.754,-97.32 -27.575,-106.808 29.418,-14.5 154.907,156.528 212.918,232.808 55.028,72.46 103.946,149.85 166.106,218.46 21.347,23.63 42.012,43.09 80.156,44.18 48.173,1.33 65.403,-47.79 64.513,-78.05 -1.38,-52.9 -20.01,-104.64 -34.25,-155.55 -24.27,-87.25 -53.286,-171.395 -84.95,-252.758 -37.774,-97.012 -73.704,-198.711 -109.571,-295.481 -15.976,-43.18 -63.187,-145.93 -42.777,-157.949 16.141,-8.902 32.742,30.918 47.574,60.398 52.785,104.7 106.137,209.899 159.942,311.461 45.872,86.469 87.002,171.094 133.842,257.159 43.89,80.68 82.6,172.58 156.64,238.4 85.64,76.03 272.56,65.29 290.6,-54.52 14.41,-95.78 -29.3,-187.18 -59.68,-275.492 -9.19,-26.777 -30.05,-69.558 -12.77,-90.738 12.39,-15.238 31.18,-11.219 39.99,-9.211 71.55,19.621 130.7,65.902 193.76,111.871 73.51,53.63 141.61,112.64 207.78,173.39 -90.25,449.35 -487.15,787.96 -963.151,787.96 C 439.797,1964.85 0,1525.02 0,982.371 0,980.895 0.113281,979.273 0.199219,977.609 43.7695,1012.97 88.0859,1047.73 133.219,1082.13 c 91.922,69.93 184.043,139.83 281.957,204.43 z m 3043.504,-233.8 101.47,0 54.26,246.63 89.42,0 19.53,88.4 -280.77,0 -19.55,-88.4 89.9,0 -54.26,-246.63" /></g></g></svg>

<svg width="516" height="246" viewBox="0 0 516 246" fill="none" xmlns="http://www.w3.org/2000/svg">
<path d="M2984.13 613.199H2912.81L2970.6 873.891H3040.89C3100.15 873.891 3144.35 828.16 3144.35 765.891C3144.35 683.512 3082.56 613.199 2984.13 613.199ZM3048.88 911.039H2936.91L2863.08 576.07H2977.11C3122.74 576.07 3188.04 676.98 3188.04 767.941C3188.04 851.781 3123.74 911.039 3048.88 911.039ZM3247.27 576.07H3288.94L3362.78 911.039H3321.08L3247.27 576.07ZM2581.86 687.559L2692.87 868.379L2723.99 687.559H2581.86ZM2674.29 911.039L2465.34 576.07H2515.06L2561.24 650.891H2728.04L2741.59 576.07H2786.79L2726.02 911.039H2674.29ZM2328.77 745.82H2240.38L2268.97 873.891H2352.36C2381.52 873.891 2409.64 851.781 2409.64 820.172C2409.64 779.988 2380.53 745.82 2328.77 745.82ZM2358.39 911.039H2235.34L2161.5 576.07H2203.17L2232.33 709.16H2302.17L2358.39 576.07H2404.6L2344.32 711.172C2409.64 715.691 2453.32 761.879 2453.32 823.641C2453.32 878.922 2406.62 911.039 2358.39 911.039ZM4018.67 1387.79L3992.55 1269.25H3872.52L3898.64 1387.79H3797.18L3723.33 1052.76H3824.78L3852.94 1180.84H3972.94L3944.86 1052.76H4046.3L4120.15 1387.79H4018.67ZM3222.69 1192.89C3215.66 1160.76 3194.03 1135.13 3152.87 1135.13C3114.68 1135.13 3097.11 1159.22 3096.59 1180.84C3096.59 1185.84 3097.11 1190.4 3097.62 1192.89L3140.79 1387.79H3037.82L2994.13 1190.4C2993.13 1185.34 2991.66 1173.28 2991.66 1169.25C2991.66 1097.46 3043.36 1046.72 3152.87 1046.72C3260.83 1046.72 3307.59 1110.01 3325.15 1190.9L3368.84 1387.79H3265.86L3222.69 1192.89ZM3575.21 607.172C3512.94 607.172 3462.21 646.852 3462.21 718.711C3462.21 811.59 3527.01 879.41 3603.87 879.41C3666.11 879.41 3716.88 839.73 3716.88 767.941C3716.88 675.02 3651.56 607.172 3575.21 607.172ZM3606.37 916.59C3501.88 916.59 3418.01 829.219 3418.01 716.691C3418.01 623.738 3486.82 570.031 3572.69 570.031C3677.69 570.031 3761.07 657.91 3761.07 770.441C3761.07 863.352 3692.27 916.59 3606.37 916.59ZM1842.82 954.359C1779.55 904.512 1692.83 845.301 1612.25 815.738C1569.39 800.102 1506.63 783.898 1457.89 803.859C1361.47 843.422 1390.32 944.379 1409.82 1014.08C1426.62 1074.68 1504.18 1224.14 1439.13 1256.79C1352.07 1300.25 1269.86 1108.48 1251.82 1075.94C1208.38 998.004 1165.38 920.34 1123.8 841.672C1069.42 738.57 1013.97 631.5 955.875 529.738C916.531 460.852 883.051 385.07 825.496 324.422C758.16 253.699 670.703 305.711 670.816 384.789C671.355 556.352 760.234 728.078 822.004 888.789C859.492 986.363 885.297 1042.33 922.273 1137.35C926.484 1148.14 961.84 1220.13 946.266 1229.11C933.617 1236.39 899.453 1179.93 882.688 1155.94C821.742 1068.85 764.504 987.391 690.742 904.621C653.395 862.691 571.594 784.238 495.273 810.398C407.191 840.699 429.934 933.809 449.742 992.617C479.586 1081.07 557.668 1241.5 562.012 1251.4C566.531 1261.33 557.488 1270.44 539.898 1260.79C522.246 1251.1 467.109 1214.36 431.836 1189.98C304.609 1093.34 84.7852 923.66 7.70703 861.59C67.25 376.031 480.781 0 982.449 0C1525.16 0 1964.87 439.762 1964.87 982.371C1964.87 1006.13 1963.79 1029.53 1962.08 1052.76C1922.92 1019.15 1883.13 986.18 1842.82 954.359ZM2264.99 1052.76H2366.44L2395.54 1185.84L2564.82 1387.79H2445.76L2359.38 1274.75L2322.21 1387.79H2213.26L2294.09 1185.84L2264.99 1052.76ZM2751.11 1303.87C2796.34 1303.87 2826.44 1273.75 2826.44 1232.57C2826.44 1181.34 2789.26 1136.13 2736.04 1136.13C2690.86 1136.13 2660.72 1166.26 2660.72 1207.46C2660.72 1258.66 2697.88 1303.87 2751.11 1303.87ZM2730.48 1046.72C2847.07 1046.72 2931.43 1133.61 2931.43 1240.61C2931.43 1331.01 2856.08 1393.3 2757.14 1393.3C2640.61 1393.3 2555.73 1307.39 2555.73 1200.44C2555.73 1109.51 2631.08 1046.72 2730.48 1046.72ZM415.176 1286.56C467.789 1321.23 527.734 1366.67 594.867 1381.24C687.699 1401.53 692.645 1315.58 676.93 1266.52C648.047 1177.14 597.566 1093.28 563.352 1005.32C551.324 974.254 515.598 908 535.777 898.512C565.195 884.012 690.684 1055.04 748.695 1131.32C803.723 1203.78 852.641 1281.17 914.801 1349.78C936.148 1373.41 956.813 1392.87 994.957 1393.96C1043.13 1395.29 1060.36 1346.17 1059.47 1315.91C1058.09 1263.01 1039.46 1211.27 1025.22 1160.36C1000.95 1073.11 971.934 988.965 940.27 907.602C902.496 810.59 866.566 708.891 830.699 612.121C814.723 568.941 767.512 466.191 787.922 454.172C804.063 445.27 820.664 485.09 835.496 514.57C888.281 619.27 941.633 724.469 995.438 826.031C1041.31 912.5 1082.44 997.125 1129.28 1083.19C1173.17 1163.87 1211.88 1255.77 1285.92 1321.59C1371.56 1397.62 1558.48 1386.88 1576.52 1267.07C1590.93 1171.29 1547.22 1079.89 1516.84 991.578C1507.65 964.801 1486.79 922.02 1504.07 900.84C1516.46 885.602 1535.25 889.621 1544.06 891.629C1615.61 911.25 1674.76 957.531 1737.82 1003.5C1811.33 1057.13 1879.43 1116.14 1945.6 1176.89C1855.35 1626.24 1458.45 1964.85 982.449 1964.85C439.797 1964.85 0 1525.02 0 982.371C0 980.895 0.113281 979.273 0.199219 977.609C43.7695 1012.97 88.0859 1047.73 133.219 1082.13C225.141 1152.06 317.262 1221.96 415.176 1286.56ZM3458.68 1052.76H3560.15L3614.41 1299.39H3703.83L3723.36 1387.79H3442.59L3423.04 1299.39H3512.94L3458.68 1052.76Z" transform="translate(0 245.606) scale(0.125 -0.125)" fill="#55C5BE"/>
</svg>
